public/images/logo.svg

<svg width="130" height="24" viewBox="0 0 130 24" fill="none" xmlns="http://www.w3.org/2000/svg">
<g clip-path="url(#clip0_11_15)">
<path d="M7.50965 5.70935C8.43742 5.70935 9.29517 5.89019 10.0829 6.25187C10.8706 6.59633 11.5446 7.07857 12.1047 7.69859C12.6824 8.30139 13.1288 9.01614 13.4439 9.84283C13.7765 10.6523 13.9427 11.5221 13.9427 12.4521C13.9427 13.3821 13.7765 14.2605 13.4439 15.0872C13.1288 15.8967 12.6824 16.6114 12.1047 17.2314C11.5446 17.8342 10.8706 18.3165 10.0829 18.6782C9.29517 19.0226 8.43742 19.1948 7.50965 19.1948C6.75694 19.1948 6.02173 19.0657 5.30402 18.8073C4.58632 18.5318 4.02615 18.1873 3.62354 17.774V24H0V6.07103H3.09839L3.62354 6.9494C4.13119 6.5016 4.7001 6.18298 5.33028 5.99353C5.96046 5.80408 6.68692 5.70935 7.50965 5.70935ZM7.03702 16.0172C7.50965 16.0172 7.94728 15.9225 8.3499 15.733C8.77002 15.5436 9.12887 15.2939 9.42645 14.9839C9.74154 14.6566 9.98661 14.2777 10.1617 13.8471C10.3542 13.4166 10.4505 12.9516 10.4505 12.4521C10.4505 11.9699 10.3542 11.5135 10.1617 11.0829C9.98661 10.6351 9.74154 10.2562 9.42645 9.94617C9.12887 9.61894 8.77002 9.36059 8.3499 9.17114C7.94728 8.98169 7.50965 8.88697 7.03702 8.88697C6.56438 8.88697 6.118 8.95586 5.69788 9.09364C5.29527 9.2142 4.93642 9.42087 4.62133 9.71366C4.32374 9.98923 4.08742 10.3595 3.91237 10.8245C3.73732 11.2723 3.6498 11.8149 3.6498 12.4521C3.6498 13.0549 3.73732 13.5802 3.91237 14.028C4.08742 14.4586 4.32374 14.8288 4.62133 15.1389C4.93642 15.4316 5.29527 15.6555 5.69788 15.8105C6.118 15.9483 6.56438 16.0172 7.03702 16.0172Z" fill="black"/>
<path d="M15.5923 0H19.2158V18.8848H15.5923V0Z" fill="black"/>
<path d="M35.0639 6.07103V18.8848H31.9392L31.5716 17.5156C31.064 18.1873 30.4513 18.6351 29.7336 18.859C29.0334 19.0829 28.2982 19.1948 27.5279 19.1948C26.6002 19.1948 25.7424 19.0226 24.9547 18.6782C24.1845 18.3165 23.5105 17.8342 22.9329 17.2314C22.3552 16.6114 21.9001 15.8967 21.5675 15.0872C21.2524 14.2605 21.0948 13.3821 21.0948 12.4521C21.0948 11.5221 21.2524 10.6523 21.5675 9.84283C21.9001 9.01614 22.3552 8.30139 22.9329 7.69859C23.5105 7.07857 24.1845 6.59633 24.9547 6.25187C25.7424 5.89019 26.6002 5.70935 27.5279 5.70935C28.3682 5.70935 29.1384 5.83853 29.8386 6.09687C30.5388 6.35521 31.1165 6.76856 31.5716 7.33691L31.9392 6.07103H35.0639ZM31.4403 12.5038C31.4403 11.8321 31.344 11.2723 31.1515 10.8245C30.9764 10.3595 30.7314 9.98923 30.4163 9.71366C30.1187 9.42087 29.7598 9.2142 29.3397 9.09364C28.9371 8.95586 28.4995 8.88697 28.0268 8.88697C27.5542 8.88697 27.1078 8.98169 26.6877 9.17114C26.2851 9.36059 25.9262 9.61894 25.6111 9.94617C25.2961 10.2562 25.051 10.6351 24.8759 11.0829C24.7009 11.5135 24.6134 11.9699 24.6134 12.4521C24.6134 12.9516 24.7009 13.4166 24.8759 13.8471C25.051 14.2777 25.2961 14.6566 25.6111 14.9839C25.9262 15.2939 26.2851 15.5436 26.6877 15.733C27.1078 15.9225 27.5542 16.0172 28.0268 16.0172C28.9721 16.0172 29.7686 15.733 30.4163 15.1647C31.0815 14.5791 31.4228 13.6921 31.4403 12.5038Z" fill="black"/>
<path d="M44.1857 6.07104C44.6758 6.07104 45.2185 6.13994 45.8136 6.27772C46.4088 6.4155 46.969 6.67384 47.4941 7.05274C48.0193 7.43165 48.4569 7.95694 48.807 8.62863C49.1746 9.30032 49.3584 10.1701 49.3584 11.2379V18.8848H45.7086V11.3671C45.7086 10.9709 45.6386 10.6351 45.4986 10.3595C45.376 10.084 45.201 9.86868 44.9734 9.71367C44.7633 9.54144 44.5183 9.42088 44.2382 9.35199C43.9581 9.26588 43.678 9.22283 43.398 9.22283C43.1704 9.22283 42.9166 9.26588 42.6365 9.35199C42.3739 9.42088 42.1201 9.54144 41.875 9.71367C41.6474 9.8859 41.4549 10.1098 41.2974 10.3854C41.1398 10.6609 41.061 10.9882 41.061 11.3671V18.8848H37.4375V6.07104H40.5359L41.061 7.05274C41.4812 6.75996 41.9538 6.52745 42.4789 6.35522C43.0041 6.16577 43.573 6.07104 44.1857 6.07104Z" fill="black"/>
<path d="M58.3914 6.07104C58.8815 6.07104 59.4242 6.13994 60.0194 6.27772C60.6146 6.4155 61.1747 6.67384 61.6999 7.05274C62.225 7.43165 62.6626 7.95694 63.0127 8.62863C63.3803 9.30032 63.5641 10.1701 63.5641 11.2379V18.8848H59.9143V11.3671C59.9143 10.9709 59.8443 10.6351 59.7043 10.3595C59.5818 10.084 59.4067 9.86868 59.1791 9.71367C58.9691 9.54144 58.724 9.42088 58.4439 9.35199C58.1638 9.26588 57.8838 9.22283 57.6037 9.22283C57.3761 9.22283 57.1223 9.26588 56.8422 9.35199C56.5796 9.42088 56.3258 9.54144 56.0807 9.71367C55.8532 9.8859 55.6606 10.1098 55.5031 10.3854C55.3455 10.6609 55.2668 10.9882 55.2668 11.3671V18.8848H51.6432V6.07104H54.7416L55.2668 7.05274C55.6869 6.75996 56.1595 6.52745 56.6847 6.35522C57.2098 6.16577 57.7787 6.07104 58.3914 6.07104Z" fill="black"/>
<path d="M74.0676 6.07104H77.6911V18.8848H74.5927L74.0676 17.9031C73.6474 18.1959 73.1661 18.437 72.6234 18.6265C72.0983 18.7987 71.5293 18.8848 70.9167 18.8848C70.444 18.8848 69.9014 18.8159 69.2887 18.6782C68.6935 18.5404 68.1334 18.282 67.6082 17.9031C67.0831 17.5242 66.6367 16.9989 66.2691 16.3272C65.919 15.6555 65.7439 14.7858 65.7439 13.718V6.07104H69.3937V13.5888C69.3937 13.9849 69.455 14.3208 69.5775 14.5963C69.7176 14.8719 69.8926 15.0958 70.1027 15.268C70.3302 15.423 70.5841 15.5436 70.8642 15.6297C71.1442 15.6986 71.4331 15.733 71.7306 15.733C71.9582 15.733 72.2033 15.6986 72.4659 15.6297C72.7459 15.5436 72.9998 15.4144 73.2273 15.2422C73.4724 15.07 73.6737 14.8461 73.8313 14.5705C73.9888 14.2949 74.0676 13.9677 74.0676 13.5888V6.07104Z" fill="black"/>
<path d="M86.8542 6.07104C87.3443 6.07104 87.887 6.13994 88.4821 6.27772C89.0773 6.4155 89.6375 6.67384 90.1626 7.05274C90.6878 7.43165 91.1254 7.95694 91.4755 8.62863C91.8431 9.30032 92.0269 10.1701 92.0269 11.2379V18.8848H88.3771V11.3671C88.3771 10.9709 88.3071 10.6351 88.167 10.3595C88.0445 10.084 87.8695 9.86868 87.6419 9.71367C87.4318 9.54144 87.1868 9.42088 86.9067 9.35199C86.6266 9.26588 86.3465 9.22283 86.0664 9.22283C85.8389 9.22283 85.585 9.26588 85.305 9.35199C85.0424 9.42088 84.7886 9.54144 84.5435 9.71367C84.3159 9.8859 84.1234 10.1098 83.9658 10.3854C83.8083 10.6609 83.7295 10.9882 83.7295 11.3671V18.8848H80.106V6.07104H83.2044L83.7295 7.05274C84.1496 6.75996 84.6223 6.52745 85.1474 6.35522C85.6726 6.16577 86.2415 6.07104 86.8542 6.07104Z" fill="black"/>
<path d="M98.2241 18.8848H94.6005V6.07106H98.2241V18.8848ZM96.4123 4.31434C95.8521 4.31434 95.3795 4.12489 94.9944 3.74598C94.6093 3.36708 94.4167 2.90206 94.4167 2.35093C94.4167 1.7998 94.6093 1.33479 94.9944 0.955882C95.3795 0.559757 95.8521 0.361694 96.4123 0.361694C96.9725 0.361694 97.4451 0.559757 97.8302 0.955882C98.2153 1.33479 98.4079 1.7998 98.4079 2.35093C98.4079 2.90206 98.2153 3.36708 97.8302 3.74598C97.4451 4.12489 96.9725 4.31434 96.4123 4.31434Z" fill="black"/>
<path d="M105.732 14.2863C105.732 14.8891 105.916 15.3541 106.283 15.6814C106.668 16.0086 107.167 16.1722 107.78 16.1722C108.27 16.1722 108.76 16.0775 109.25 15.8881V18.8848C108.813 19.0226 108.349 19.1346 107.859 19.2207C107.369 19.324 106.878 19.3757 106.388 19.3757C105.828 19.3757 105.294 19.3068 104.787 19.169C104.279 19.0312 103.824 18.7987 103.421 18.4715C103.019 18.127 102.695 17.6792 102.45 17.1281C102.222 16.5597 102.108 15.8622 102.108 15.0355V9.24864H100.244V6.84606L102.108 6.07103V3.20343H105.732V6.07103H109.25V9.24864H105.732V14.2863Z" fill="black"/>
<path d="M121.035 6.07104H125L116.781 24H112.816L116.046 16.9473L110.532 6.07104H114.576L117.963 12.7621L121.035 6.07104Z" fill="black"/>
</g>
<g clip-path="url(#clip1_11_15)">
<path d="M127.5 24C128.881 24 130 22.8807 130 21.5C130 20.1193 128.881 19 127.5 19C126.119 19 125 20.1193 125 21.5C125 22.8807 126.119 24 127.5 24Z" fill="#FF833E"/>
</g>
<defs>
<clipPath id="clip0_11_15">
<rect width="125" height="24" fill="white"/>
</clipPath>
<clipPath id="clip1_11_15">
<rect width="5" height="5" fill="white" transform="translate(125 19)"/>
</clipPath>
</defs>
</svg>

<svg xmlns="http://www.w3.org/2000/svg" width="130" height="24" fill="none" viewBox="0 0 130 24"><g fill="#000" clip-path="url(#a)"><path d="M7.51 5.71c.927 0 1.785.18 2.573.542a5.845 5.845 0 0 1 2.022 1.447 6.304 6.304 0 0 1 1.339 2.144c.332.81.499 1.68.499 2.61 0 .93-.166 1.808-.5 2.634a6.654 6.654 0 0 1-1.338 2.144 6.332 6.332 0 0 1-2.022 1.447 6.353 6.353 0 0 1-2.573.517c-.753 0-1.488-.13-2.206-.388-.718-.275-1.278-.62-1.68-1.033V24H0V6.071h3.098l.526.878a4.524 4.524 0 0 1 1.706-.955c.63-.19 1.357-.285 2.18-.285zm-.473 10.307c.473 0 .91-.095 1.313-.284.42-.19.779-.44 1.076-.75a3.55 3.55 0 0 0 .736-1.136c.192-.43.288-.895.288-1.395 0-.482-.096-.938-.288-1.37a3.21 3.21 0 0 0-.736-1.136 3.232 3.232 0 0 0-1.076-.775 3.045 3.045 0 0 0-1.313-.284 4.27 4.27 0 0 0-1.34.207c-.402.12-.76.327-1.076.62-.297.275-.534.646-.709 1.11-.175.448-.262.99-.262 1.628 0 .603.087 1.128.262 1.576.175.43.412.8.71 1.11a3.32 3.32 0 0 0 1.076.672c.42.138.866.207 1.339.207zM15.592 0h3.624v18.885h-3.624V0zm19.472 6.071v12.814h-3.125l-.367-1.37c-.508.672-1.12 1.12-1.838 1.344-.7.224-1.436.336-2.206.336a6.353 6.353 0 0 1-2.573-.517 6.744 6.744 0 0 1-2.022-1.447 7.039 7.039 0 0 1-1.366-2.144 7.335 7.335 0 0 1-.472-2.635c0-.93.157-1.8.473-2.61A6.647 6.647 0 0 1 22.932 7.7a6.191 6.191 0 0 1 2.022-1.447 6.092 6.092 0 0 1 2.573-.543c.84 0 1.61.13 2.31.388s1.278.672 1.734 1.24l.367-1.266h3.125zm-3.624 6.433c0-.672-.096-1.232-.289-1.68-.175-.464-.42-.835-.735-1.11a2.485 2.485 0 0 0-1.076-.62 4.03 4.03 0 0 0-1.313-.207 3.22 3.22 0 0 0-1.34.284 3.63 3.63 0 0 0-1.076.775c-.315.31-.56.69-.735 1.137a3.6 3.6 0 0 0-.263 1.37c0 .499.088.964.263 1.394.175.43.42.81.735 1.137.315.31.674.56 1.077.749.42.19.866.284 1.339.284.945 0 1.742-.284 2.39-.852.664-.586 1.006-1.473 1.023-2.661zm12.746-6.433c.49 0 1.032.069 1.628.207a4.643 4.643 0 0 1 1.68.775c.525.379.963.904 1.313 1.576.368.671.551 1.541.551 2.609v7.647h-3.65v-7.518c0-.396-.07-.732-.21-1.008a1.495 1.495 0 0 0-.525-.645 1.833 1.833 0 0 0-.735-.362 2.85 2.85 0 0 0-.84-.13c-.228 0-.481.044-.762.13-.262.069-.516.19-.761.362-.228.172-.42.396-.578.671a1.953 1.953 0 0 0-.236.982v7.518h-3.623V6.07h3.098l.525.982c.42-.293.893-.526 1.418-.698a4.994 4.994 0 0 1 1.707-.284zm14.205 0c.49 0 1.033.069 1.628.207a4.644 4.644 0 0 1 1.68.775c.526.379.964.904 1.314 1.576.367.671.551 1.541.551 2.609v7.647h-3.65v-7.518c0-.396-.07-.732-.21-1.008a1.495 1.495 0 0 0-.525-.645 1.832 1.832 0 0 0-.735-.362 2.85 2.85 0 0 0-.84-.13c-.228 0-.482.044-.762.13-.262.069-.516.19-.761.362-.228.172-.42.396-.578.671a1.953 1.953 0 0 0-.236.982v7.518h-3.624V6.07h3.099l.525.982c.42-.293.892-.526 1.418-.698a4.993 4.993 0 0 1 1.706-.284zm15.677 0h3.623v12.814h-3.098l-.525-.982a5.93 5.93 0 0 1-1.445.724 5.447 5.447 0 0 1-1.706.258 7.529 7.529 0 0 1-1.628-.207 4.644 4.644 0 0 1-1.68-.775c-.526-.379-.972-.904-1.34-1.576-.35-.672-.525-1.541-.525-2.609V6.071h3.65v7.518c0 .396.061.732.183 1.007.14.276.316.5.526.672.227.155.481.276.761.362.28.069.57.103.867.103.227 0 .472-.034.735-.103.28-.086.534-.216.761-.388.245-.172.447-.396.604-.672.158-.275.237-.602.237-.981V6.07zm12.786 0c.49 0 1.033.069 1.628.207a4.643 4.643 0 0 1 1.68.775c.526.379.963.904 1.313 1.576.368.671.552 1.541.552 2.609v7.647h-3.65v-7.518c0-.396-.07-.732-.21-1.008a1.494 1.494 0 0 0-.525-.645 1.833 1.833 0 0 0-.735-.362 2.85 2.85 0 0 0-.84-.13c-.228 0-.482.044-.762.13-.263.069-.516.19-.762.362-.227.172-.42.396-.577.671-.158.276-.236.603-.236.982v7.518h-3.624V6.07h3.098l.526.982c.42-.293.892-.526 1.417-.698a4.994 4.994 0 0 1 1.707-.284zm11.37 12.814H94.6V6.07h3.624v12.814zm-1.812-14.57c-.56 0-1.033-.19-1.418-.569a1.881 1.881 0 0 1-.577-1.395c0-.551.192-1.016.577-1.395a1.9 1.9 0 0 1 1.418-.594 1.9 1.9 0 0 1 1.418.594c.385.379.578.844.578 1.395s-.193 1.016-.578 1.395a1.944 1.944 0 0 1-1.418.568zm9.32 9.971c0 .603.184 1.068.551 1.395.385.328.884.491 1.497.491.49 0 .98-.095 1.47-.284v2.997c-.437.138-.901.25-1.391.336-.49.103-.981.155-1.471.155a6.08 6.08 0 0 1-1.601-.207 3.664 3.664 0 0 1-1.366-.698c-.402-.344-.726-.792-.971-1.343-.228-.568-.342-1.266-.342-2.092V9.248h-1.864V6.846l1.864-.775V3.203h3.624v2.868h3.518v3.178h-3.518v5.037zm15.303-8.215H125L116.781 24h-3.965l3.23-7.053-5.514-10.876h4.044l3.387 6.691 3.072-6.691z"/></g><g clip-path="url(#b)"><path fill="#FF833E" d="M127.5 24a2.5 2.5 0 1 0 0-5 2.5 2.5 0 0 0 0 5z"/></g><defs><clipPath id="a"><path fill="#fff" d="M0 0h125v24H0z"/></clipPath><clipPath id="b"><path fill="#fff" d="M0 0h5v5H0z" transform="translate(125 19)"/></clipPath></defs></svg>
